packages/ffe-icons/icons/open/300/md/videogame_asset.svg

<svg xmlns="http://www.w3.org/2000/svg" height="24" viewBox="0 -960 960 960" width="24"><path d="M172.309-260.001q-30.308 0-51.308-21t-21-51.435v-295.128q0-30.435 21-51.435 21-21 51.308-21h615.382q30.308 0 51.308 21t21 51.435v295.128q0 30.435-21 51.435-21 21-51.308 21H172.309Zm0-59.999h615.382q4.616 0 8.463-3.846 3.846-3.847 3.846-8.463v-295.382q0-4.616-3.846-8.463-3.847-3.846-8.463-3.846H172.309q-4.616 0-8.463 3.846-3.846 3.847-3.846 8.463v295.382q0 4.616 3.846 8.463 3.847 3.846 8.463 3.846Zm117.692-130.001V-400q0 12.75 8.628 21.374 8.629 8.625 21.384 8.625 12.756 0 21.371-8.625 8.615-8.624 8.615-21.374v-50.001H400q12.75 0 21.374-8.628 8.625-8.629 8.625-21.384 0-12.756-8.625-21.371-8.624-8.615-21.374-8.615h-50.001V-560q0-12.75-8.628-21.375-8.629-8.624-21.384-8.624-12.756 0-21.371 8.624-8.615 8.625-8.615 21.375v50.001H240q-12.75 0-21.374 8.628-8.625 8.629-8.625 21.384 0 12.756 8.625 21.371 8.624 8.615 21.374 8.615h50.001Zm289.954 80q20.814 0 35.429-14.57 14.615-14.57 14.615-35.384t-14.57-35.429q-14.57-14.615-35.384-14.615t-35.429 14.57q-14.615 14.57-14.615 35.384t14.57 35.429q14.57 14.615 35.384 14.615Zm120-120q20.814 0 35.429-14.57 14.615-14.57 14.615-35.384t-14.57-35.429q-14.57-14.615-35.384-14.615t-35.429 14.57q-14.615 14.57-14.615 35.384t14.57 35.429q14.57 14.615 35.384 14.615ZM160-320V-640-320Z"/></svg>

<svg xmlns="http://www.w3.org/2000/svg" height="24" viewBox="0 -960 960 960" width="24"><path d="M172.31-260Q142-260 121-281q-21-21-21-51.44v-295.12Q100-658 121-679q21-21 51.31-21h615.38Q818-700 839-679q21 21 21 51.44v295.12Q860-302 839-281q-21 21-51.31 21H172.31Zm0-60h615.38q4.62 0 8.46-3.85 3.85-3.84 3.85-8.46v-295.38q0-4.62-3.85-8.46-3.84-3.85-8.46-3.85H172.31q-4.62 0-8.46 3.85-3.85 3.84-3.85 8.46v295.38q0 4.62 3.85 8.46 3.84 3.85 8.46 3.85ZM290-450v50q0 12.75 8.63 21.37 8.63 8.63 21.38 8.63 12.76 0 21.37-8.63Q350-387.25 350-400v-50h50q12.75 0 21.37-8.63 8.63-8.63 8.63-21.38 0-12.76-8.63-21.37Q412.75-510 400-510h-50v-50q0-12.75-8.63-21.37-8.63-8.63-21.38-8.63-12.76 0-21.37 8.63Q290-572.75 290-560v50h-50q-12.75 0-21.37 8.63-8.63 8.63-8.63 21.38 0 12.76 8.63 21.37Q227.25-450 240-450h50Zm289.95 80q20.82 0 35.43-14.57Q630-399.14 630-419.95q0-20.82-14.57-35.43Q600.86-470 580.05-470q-20.82 0-35.43 14.57Q530-440.86 530-420.05q0 20.82 14.57 35.43Q559.14-370 579.95-370Zm120-120q20.82 0 35.43-14.57Q750-519.14 750-539.95q0-20.82-14.57-35.43Q720.86-590 700.05-590q-20.82 0-35.43 14.57Q650-560.86 650-540.05q0 20.82 14.57 35.43Q679.14-490 699.95-490ZM160-320v-320 320Z"/></svg>
